X: 31853
T: Paul's
R: jig
M: 6/8
K: Gmajor
|:BB/c/^c|d3 ed^c|d2 G D2 G|Bcd cc/B/A|E3- EFG|
A^GA A2 =G|FD/E/F d2 A|1 FDF ed=c|B3-:|2 FDF e2 F|G3- G2||
|:c|B2 D B2 D|B2 ^A B2 =A|GFG d2 G|c3- cAB|
c2 d c2 A|GFE D3|1 FDF e2 =c|B3- B2:|2 FDF e2 F|G3||

